src/images/lightPurple.svg

<svg version="1.1" viewBox="0.0 0.0 835.1994750656168 540.0" fill="none" stroke="none" stroke-linecap="square" stroke-miterlimit="10" xmlns:xlink="http://www.w3.org/1999/xlink" xmlns="http://www.w3.org/2000/svg"><clipPath id="g2f35aa4ea34_0_195.0"><path d="m0 0l835.19946 0l0 540.0l-835.19946 0l0 -540.0z" clip-rule="nonzero"/></clipPath><g clip-path="url(#g2f35aa4ea34_0_195.0)"><path fill="#ffffff" d="m0 0l835.19946 0l0 540.0l-835.19946 0z" fill-rule="evenodd"/><path fill="#ffffff" d="m499.36664 526.0556l-405.88977 0c-1.6080093 0 -3.150154 -0.6387329 -4.2871857 -1.7757568c-1.1370316 -1.137085 -1.7758102 -2.6791992 -1.7758102 -4.2872314l0 -6.0629883c0 -0.0018920898 0.0015640259 -0.003479004 0.0034866333 -0.003479004l418.01227 0.003479004l0 0c0.0019226074 0 0.003479004 0.0015869141 0.003479004 0.003479004l-0.003479004 6.0595093l0 0c0 3.3485107 -2.7144775 6.0629883 -6.0629883 6.0629883z" fill-rule="evenodd"/><path fill="#ffffff" d="m-0.12707691 44.766464l0 0c0 -24.722815 20.0418 -44.764614 44.76461 -44.764614l745.9039 0c11.872314 0 23.258362 4.7162585 31.653381 13.111252c8.3949585 8.394994 13.111206 19.781048 13.111206 31.653362l0 447.6676c0 24.72284 -20.041748 44.764587 -44.764587 44.764587l-745.9039 0c-24.722813 0 -44.76461 -20.041748 -44.76461 -44.764587z" fill-rule="evenodd"/><path fill="#d9d9d9" d="m-0.11570105 -5.5380577E-5l835.4331 0c0.0018310547 0 0.0036010742 7.3348824E-4 0.0048828125 0.0020391056c0.0013427734 0.0013056176 0.0020751953 0.0030764146 0.0020751953 0.0049228366l-0.006958008 46.575714c0 0.0038452148 -0.003112793 0.0069618225 -0.006958008 0.0069618225l-835.42615 -0.0069618225l0 0c-0.0038449764 0 -0.0069619417 -0.0031166077 -0.0069619417 -0.0069618225l0.0069619417 -46.575718l0 0c0 -0.0038449746 0.0031169653 -0.006961942 0.0069619417 -0.006961942z" fill-rule="evenodd"/><path fill="#eeeeee" d="m74.37243 181.32648l511.87775 0c5.466736 0 10.709534 2.171646 14.575073 6.037216c3.8656006 3.8655548 6.0372314 9.108368 6.0372314 14.575104l0 335.3247c0 0.0025634766 -0.0020751953 0.004638672 -0.004638672 0.004638672l-553.0977 -0.004638672l0 0c-0.002544403 0 -0.0046081543 -0.0020751953 -0.0046081543 -0.004638672l0.0046081543 -335.32007l0 0c0 -11.383865 9.228447 -20.61232 20.612312 -20.61232z" fill-rule="evenodd"/><path fill="#eeeeee" d="m53.760117 73.83897l0 0c0 -3.3311691 2.700447 -6.031616 6.031616 -6.031616l541.0391 0c1.5996704 0 3.13385 0.63547516 4.2650146 1.7666245c1.1311035 1.1311493 1.7666016 2.6653137 1.7666016 4.2649918l0 24.125748c0 3.3311691 -2.7004395 6.031616 -6.031616 6.031616l-541.0391 0c-3.3311691 0 -6.031616 -2.700447 -6.031616 -6.031616z" fill-rule="evenodd"/><path fill="#d9d9d9" d="m835.3271 421.66238l-235.51276 0c-6.2855835 0 -12.313721 -2.4969177 -16.7583 -6.941498c-4.44458 -4.44458 -6.9415283 -10.472717 -6.9415283 -16.7583l0 -258.97736l259.2126 0z" fill-rule="evenodd"/><path fill="#d9d9d9" d="m734.47864 441.74872l56.770996 0c2.758728 0 5.40448 1.0959167 7.3552246 3.0466614c1.9507446 1.9507141 3.046692 4.5964966 3.046692 7.355255l0 36.180756c0 3.6621094E-4 -3.0517578E-4 6.4086914E-4 -6.713867E-4 6.4086914E-4l-77.57416 -6.4086914E-4l0 0c-3.6621094E-4 0 -6.713867E-4 -2.746582E-4 -6.713867E-4 -6.4086914E-4l6.713867E-4 -36.180115l0 0c0 -5.744812 4.6571045 -10.4019165 10.4019165 -10.4019165z" fill-rule="evenodd"/><path fill="#ffffff" d="m100.23175 216.59322l392.3602 0c3.4021606 0 6.6649475 1.3514862 9.070618 3.7571564c2.4056702 2.4056854 3.7571716 5.6684723 3.7571716 9.070602l0 64.747055c0 0.0019226074 -0.0015563965 0.003479004 -0.003479004 0.003479004l-418.01227 -0.003479004l0 0c-0.0019226074 0 -0.0034866333 -0.0015869141 -0.0034866333 -0.0035095215l0.0034866333 -64.743546l0 0c0 -7.0845795 5.743187 -12.827759 12.827766 -12.827759z" fill-rule="evenodd"/><path fill="#ffa3b0" d="m461.08792 256.77963l0 0c0 -2.6614685 2.1575317 -4.8190002 4.8190002 -4.8190002l21.102173 0c1.2780762 0 2.5037842 0.5077057 3.4075317 1.4114532c0.90374756 0.9037323 1.411438 2.1294556 1.411438 3.407547l0 19.27539c0 2.6614685 -2.1575317 4.8190002 -4.8189697 4.8190002l-21.102173 0l0 0c-2.6614685 0 -4.8190002 -2.1575317 -4.8190002 -4.8190002z" fill-rule="evenodd"/><path fill="#ffffff" d="m100.23175 326.44907l392.3602 0c3.4021606 0 6.6649475 1.3515015 9.070618 3.7571716c2.4056702 2.4056702 3.7571716 5.668457 3.7571716 9.070618l0 64.74701c0 0.0019226074 -0.0015563965 0.0035095215 -0.003479004 0.0035095215l-418.01227 -0.0035095215l0 0c-0.0019226074 0 -0.0034866333 -0.0015563965 -0.0034866333 -0.003479004l0.0034866333 -64.74353l0 0c0 -7.0845947 5.743187 -12.827789 12.827766 -12.827789z" fill-rule="evenodd"/><path fill="#ffa3b0" d="m461.08667 366.63593l0 0c0 -2.6614685 2.1575317 -4.8190002 4.8190002 -4.8190002l21.102142 0c1.2780762 0 2.5038147 0.50772095 3.4075623 1.4114685c0.90371704 0.90371704 1.411438 2.1294556 1.411438 3.4075317l0 19.27539c0 2.6614685 -2.1575317 4.8190002 -4.8190002 4.8190002l-21.102142 0l0 0c-2.6614685 0 -4.8190002 -2.1575317 -4.8190002 -4.8190002z" fill-rule="evenodd"/><path fill="#ffffff" d="m100.23175 436.30493l392.3602 0c3.4021606 0 6.6649475 1.3515015 9.070618 3.7571716c2.4056702 2.4056702 3.7571716 5.668457 3.7571716 9.070587l0 64.74707c0 0.0018920898 -0.0015563965 0.003479004 -0.003479004 0.003479004l-418.01227 -0.003479004l0 0c-0.0019226074 0 -0.0034866333 -0.0015869141 -0.0034866333 -0.003479004l0.0034866333 -64.74359l0 0c0 -7.084564 5.743187 -12.827759 12.827766 -12.827759z" fill-rule="evenodd"/><path fill="#ffa3b0" d="m461.08667 476.4918l0 0c0 -2.6614685 2.1575317 -4.8190002 4.8190002 -4.8190002l21.102142 0c1.2780762 0 2.5038147 0.50772095 3.4075623 1.411438c0.90371704 0.90374756 1.411438 2.129486 1.411438 3.4075623l0 19.27539c0 2.6614685 -2.1575317 4.8190002 -4.8190002 4.8190002l-21.102142 0l0 0c-2.6614685 0 -4.8190002 -2.1575317 -4.8190002 -4.8190002z" fill-rule="evenodd"/><path fill="#d9d9d9" d="m499.36664 306.3439l-405.88977 0c-1.6080093 0 -3.150154 -0.6387634 -4.2871857 -1.7758179c-1.1370316 -1.1370239 -1.7758102 -2.6791687 -1.7758102 -4.2871704l0 -6.0629883c0 -0.0019226074 0.0015640259 -0.003479004 0.0034866333 -0.003479004l418.01227 0.003479004l0 0c0.0019226074 0 0.003479004 0.0015563965 0.003479004 0.003479004l-0.003479004 6.0595093l0 0c0 3.3485107 -2.7144775 6.0629883 -6.0629883 6.0629883z" fill-rule="evenodd"/><path fill="#d9d9d9" d="m499.36664 416.19977l-405.88977 0c-1.6080093 0 -3.150154 -0.63879395 -4.2871857 -1.7758179c-1.1370316 -1.1370239 -1.7758102 -2.6791687 -1.7758102 -4.2871704l0 -6.0629883c0 -0.0019226074 0.0015640259 -0.003479004 0.0034866333 -0.003479004l418.01227 0.003479004l0 0c0.0019226074 0 0.003479004 0.0015563965 0.003479004 0.003479004l-0.003479004 6.0595093l0 0c0 3.3484802 -2.7144775 6.0629883 -6.0629883 6.0629883z" fill-rule="evenodd"/><path fill="#d0b1ff" d="m376.9147 306.34384l-283.46457 0c-1.6038284 0 -3.1419754 -0.6371155 -4.2760468 -1.7712097c-1.134079 -1.1340637 -1.7712021 -2.6722107 -1.7712021 -4.2760315l0 -6.0472717l289.5118 0z" fill-rule="evenodd"/><path fill="#d9d9d9" d="m339.41098 134.40671l0 0c0 -5.4343567 4.4053955 -9.839775 9.839783 -9.839775l122.745605 0c2.6096802 0 5.1124573 1.0366821 6.957794 2.8820038c1.8453064 1.845314 2.8819885 4.3481064 2.8819885 6.9577713l0 16.509415c0 5.4343567 -4.4053955 9.839783 -9.839783 9.839783l-122.745605 0c-5.434387 0 -9.839783 -4.405426 -9.839783 -9.839783z" fill-rule="evenodd"/><path fill="#d0b1ff" d="m376.9147 416.18372l-283.46457 0c-1.6038284 0 -3.1419754 -0.6371155 -4.2760468 -1.7711792c-1.134079 -1.1340942 -1.7712021 -2.6722107 -1.7712021 -4.276062l0 -6.047241l289.5118 0z" fill-rule="evenodd"/><path fill="#ffa3b0" d="m640.0015 376.67838l0 0c0 -5.4343567 4.4053955 -9.839783 9.839783 -9.839783l122.745605 0c2.6096802 0 5.112488 1.0366821 6.9577637 2.8819885c1.8453369 1.8453369 2.882019 4.348114 2.882019 6.957794l0 16.5094c0 5.4343567 -4.4053955 9.839783 -9.839783 9.839783l-122.745605 0c-5.434387 0 -9.839783 -4.405426 -9.839783 -9.839783z" fill-rule="evenodd"/><path fill="#d0b1ff" d="m178.07764 134.40671l0 0c0 -5.4343567 4.405411 -9.839775 9.839783 -9.839775l122.745636 0c2.6096497 0 5.1124573 1.0366821 6.9577637 2.8820038c1.8453064 1.845314 2.882019 4.3481064 2.882019 6.9577713l0 16.509415c0 5.4343567 -4.405426 9.839783 -9.839783 9.839783l-122.745636 0c-5.434372 0 -9.839783 -4.405426 -9.839783 -9.839783z" fill-rule="evenodd"/><path fill="#d9d9d9" d="m531.5322 206.18704l0 -56.77098c0 -2.7587585 1.0959473 -5.4045258 3.0466309 -7.3552704c1.9507446 -1.9507294 4.5965576 -3.046646 7.3552856 -3.046646l36.180786 0c3.6621094E-4 0 6.1035156E-4 2.89917E-4 6.1035156E-4 6.4086914E-4l-6.1035156E-4 77.57416l0 0c0 3.6621094E-4 -3.0517578E-4 6.5612793E-4 -6.713867E-4 6.5612793E-4l-36.180115 -6.5612793E-4l0 0c-5.744812 0 -10.4019165 -4.657089 -10.4019165 -10.401901z" fill-rule="evenodd"/><path fill="#eeeeee" d="m100.50394 238.71933l0 0c0 -4.601013 3.7298584 -8.330872 8.330879 -8.330872l58.078407 0c2.209488 0 4.328476 0.8777008 5.890808 2.4400482c1.5623474 1.5623474 2.4400635 3.6813354 2.4400635 5.8908234l0 33.32251c0 4.601013 -3.7298584 8.330872 -8.330872 8.330872l-58.078407 0c-4.601021 0 -8.330879 -3.7298584 -8.330879 -8.330872z" fill-rule="evenodd"/><path fill="#eeeeee" d="m100.50394 349.0763l0 0c0 -4.601013 3.7298584 -8.330902 8.330879 -8.330902l58.078407 0c2.209488 0 4.328476 0.87771606 5.890808 2.4400635c1.5623474 1.5623474 2.4400635 3.6813354 2.4400635 5.8908386l0 33.32248c0 4.601013 -3.7298584 8.330872 -8.330872 8.330872l-58.078407 0c-4.601021 0 -8.330879 -3.7298584 -8.330879 -8.330872z" fill-rule="evenodd"/><path fill="#eeeeee" d="m100.50394 458.4306l0 0c0 -4.601013 3.7298584 -8.330872 8.330879 -8.330872l58.078407 0c2.209488 0 4.328476 0.87771606 5.890808 2.4400635c1.5623474 1.5623474 2.4400635 3.6813354 2.4400635 5.890808l0 33.32251c0 4.601013 -3.7298584 8.330872 -8.330872 8.330872l-58.078407 0c-4.601021 0 -8.330879 -3.7298584 -8.330879 -8.330872z" fill-rule="evenodd"/><path fill="#d9d9d9" d="m835.3271 539.99994l-835.43304 0c-0.0018464252 0 -0.0036172196 -7.324219E-4 -0.004922837 -0.0020141602c-0.0013056174 -0.0013427734 -0.0020391047 -0.003112793 -0.0020391047 -0.0049438477l0.0069619417 -53.85132c0 -0.0038452148 0.0031169653 -0.006958008 0.0069619417 -0.006958008l835.4261 0.006958008l0 0c0.0038452148 0 0.007019043 0.0031433105 0.007019043 0.0069885254l-0.007019043 53.851288l0 0c0 0.0038452148 -0.003112793 0.006958008 -0.006958008 0.006958008z" fill-rule="evenodd"/></g></svg>

<svg width="836" height="540" viewBox="0 0 836 540" fill="none" xmlns="http://www.w3.org/2000/svg">
<g clip-path="url(#clip0_8_2)">
<mask id="mask0_8_2" style="mask-type:luminance" maskUnits="userSpaceOnUse" x="0" y="0" width="836" height="540">
<path d="M0 0H835.199V540H0V0Z" fill="white"/>
</mask>
<g mask="url(#mask0_8_2)">
<path fill-rule="evenodd" clip-rule="evenodd" d="M499.367 526.056H93.4769C91.8689 526.056 90.3267 525.417 89.1897 524.28C88.0527 523.143 87.4139 521.601 87.4139 519.993V513.93C87.4139 513.928 87.4154 513.926 87.4174 513.926L505.43 513.93C505.432 513.93 505.433 513.931 505.433 513.933L505.43 519.993C505.43 523.341 502.715 526.056 499.367 526.056Z" fill="white"/>
<path fill-rule="evenodd" clip-rule="evenodd" d="M-0.127075 44.7665C-0.127075 20.0436 19.9147 0.00184631 44.6375 0.00184631H790.541C802.414 0.00184631 813.8 4.7181 822.195 13.1131C830.59 21.5081 835.306 32.8941 835.306 44.7665V492.434C835.306 517.157 815.264 537.199 790.541 537.199H44.6375C19.9147 537.199 -0.127075 517.157 -0.127075 492.434V44.7665Z" fill="white"/>
<path fill-rule="evenodd" clip-rule="evenodd" d="M74.3724 181.326H586.25C591.717 181.326 596.96 183.498 600.825 187.364C604.691 191.229 606.862 196.472 606.862 201.939V537.263C606.862 537.266 606.86 537.268 606.858 537.268L53.7602 537.263C53.7576 537.263 53.7556 537.261 53.7556 537.259L53.7602 201.939C53.7602 190.555 62.9886 181.326 74.3724 181.326Z" fill="#EEEEEE"/>
<path fill-rule="evenodd" clip-rule="evenodd" d="M53.7601 73.839C53.7601 70.5078 56.4606 67.8073 59.7917 67.8073H600.831C602.43 67.8073 603.965 68.4428 605.096 69.574C606.227 70.7051 606.862 72.2393 606.862 73.839V97.9647C606.862 101.296 604.162 103.996 600.831 103.996H59.7917C56.4606 103.996 53.7601 101.296 53.7601 97.9647V73.839Z" fill="#EEEEEE"/>
<path fill-rule="evenodd" clip-rule="evenodd" d="M835.327 421.662H599.814C593.529 421.662 587.501 419.165 583.056 414.721C578.611 410.276 576.115 404.248 576.115 397.963V138.985H835.327V421.662Z" fill="#D9D9D9"/>
<path fill-rule="evenodd" clip-rule="evenodd" d="M734.46 442H791.541C794.315 442 796.975 443.129 798.937 445.139C800.898 447.149 802 449.876 802 452.718V489.999C802 489.999 802 490 802 489.999H724.001C724.001 490 724 489.999 724.001 489.999V452.718C724.001 446.799 728.683 442 734.46 442Z" fill="#D9D9D9"/>
<path fill-rule="evenodd" clip-rule="evenodd" d="M100.232 216.593H492.592C495.994 216.593 499.257 217.945 501.663 220.35C504.068 222.756 505.42 226.019 505.42 229.421V294.168C505.42 294.17 505.418 294.172 505.416 294.172L87.404 294.168C87.4021 294.168 87.4005 294.166 87.4005 294.165L87.404 229.421C87.404 222.336 93.1472 216.593 100.232 216.593Z" fill="white"/>
<path fill-rule="evenodd" clip-rule="evenodd" d="M461.088 256.78C461.088 254.118 463.245 251.961 465.907 251.961H487.009C488.287 251.961 489.513 252.468 490.417 253.372C491.32 254.276 491.828 255.502 491.828 256.78V276.055C491.828 278.716 489.671 280.874 487.009 280.874H465.907C463.245 280.874 461.088 278.716 461.088 276.055V256.78Z" fill="#FFA3B0"/>
<path fill-rule="evenodd" clip-rule="evenodd" d="M100.232 326.449H492.592C495.994 326.449 499.257 327.801 501.663 330.206C504.068 332.612 505.42 335.875 505.42 339.277V404.024C505.42 404.026 505.418 404.027 505.416 404.027L87.404 404.024C87.4021 404.024 87.4005 404.022 87.4005 404.02L87.404 339.277C87.404 332.192 93.1472 326.449 100.232 326.449Z" fill="white"/>
<path fill-rule="evenodd" clip-rule="evenodd" d="M461.087 366.636C461.087 363.974 463.244 361.817 465.906 361.817H487.008C488.286 361.817 489.512 362.325 490.415 363.228C491.319 364.132 491.827 365.358 491.827 366.636V385.911C491.827 388.573 489.669 390.73 487.008 390.73H465.906C463.244 390.73 461.087 388.573 461.087 385.911V366.636Z" fill="#FFA3B0"/>
<path fill-rule="evenodd" clip-rule="evenodd" d="M100.232 436.305H492.592C495.994 436.305 499.257 437.656 501.663 440.062C504.068 442.468 505.42 445.731 505.42 449.133V513.88C505.42 513.882 505.418 513.883 505.416 513.883L87.404 513.88C87.4021 513.88 87.4005 513.878 87.4005 513.876L87.404 449.133C87.404 442.048 93.1472 436.305 100.232 436.305Z" fill="white"/>
<path fill-rule="evenodd" clip-rule="evenodd" d="M461.087 476.492C461.087 473.83 463.244 471.673 465.906 471.673H487.008C488.286 471.673 489.512 472.181 490.415 473.084C491.319 473.988 491.827 475.214 491.827 476.492V495.767C491.827 498.429 489.669 500.586 487.008 500.586H465.906C463.244 500.586 461.087 498.429 461.087 495.767V476.492Z" fill="#FFA3B0"/>
<path fill-rule="evenodd" clip-rule="evenodd" d="M499.367 306.344H93.4769C91.8689 306.344 90.3267 305.705 89.1897 304.568C88.0527 303.431 87.4139 301.889 87.4139 300.281V294.218C87.4139 294.216 87.4154 294.214 87.4174 294.214L505.43 294.218C505.432 294.218 505.433 294.219 505.433 294.221L505.43 300.281C505.43 303.629 502.715 306.344 499.367 306.344Z" fill="#D9D9D9"/>
<path fill-rule="evenodd" clip-rule="evenodd" d="M499.367 416.2H93.4769C91.8689 416.2 90.3267 415.561 89.1897 414.424C88.0527 413.287 87.4139 411.745 87.4139 410.137V404.074C87.4139 404.072 87.4154 404.07 87.4174 404.07L505.43 404.074C505.432 404.074 505.433 404.075 505.433 404.077L505.43 410.137C505.43 413.485 502.715 416.2 499.367 416.2Z" fill="#D9D9D9"/>
<path fill-rule="evenodd" clip-rule="evenodd" d="M376.915 306.344H93.4501C91.8463 306.344 90.3082 305.707 89.1741 304.573C88.04 303.439 87.4029 301.9 87.4029 300.297V294.249H376.915L376.915 306.344Z" fill="#D0B1FF"/>
<path fill-rule="evenodd" clip-rule="evenodd" d="M339.411 134.407C339.411 128.972 343.816 124.567 349.251 124.567H471.996C474.606 124.567 477.109 125.604 478.954 127.449C480.799 129.294 481.836 131.797 481.836 134.407V150.916C481.836 156.35 477.431 160.756 471.996 160.756H349.251C343.816 160.756 339.411 156.35 339.411 150.916V134.407Z" fill="#D9D9D9"/>
<path fill-rule="evenodd" clip-rule="evenodd" d="M376.915 416.184H93.4501C91.8463 416.184 90.3082 415.547 89.1741 414.413C88.04 413.278 87.4029 411.74 87.4029 410.136V404.089H376.915L376.915 416.184Z" fill="#D0B1FF"/>
<path fill-rule="evenodd" clip-rule="evenodd" d="M640.001 376.678C640.001 371.244 644.407 366.839 649.841 366.839H772.587C775.197 366.839 777.699 367.875 779.545 369.721C781.39 371.566 782.427 374.069 782.427 376.678V393.188C782.427 398.622 778.021 403.028 772.587 403.028H649.841C644.407 403.028 640.001 398.622 640.001 393.188V376.678Z" fill="#FFA3B0"/>
<path fill-rule="evenodd" clip-rule="evenodd" d="M178.078 134.407C178.078 128.972 182.483 124.567 187.917 124.567H310.663C313.273 124.567 315.776 125.604 317.621 127.449C319.466 129.294 320.503 131.797 320.503 134.407V150.916C320.503 156.35 316.097 160.756 310.663 160.756H187.917C182.483 160.756 178.078 156.35 178.078 150.916V134.407Z" fill="#D0B1FF"/>
<path fill-rule="evenodd" clip-rule="evenodd" d="M531.532 206.187V149.416C531.532 146.657 532.628 144.012 534.579 142.061C536.53 140.11 539.175 139.014 541.934 139.014H578.115C578.115 139.014 578.115 139.014 578.115 139.014V216.589C578.115 216.589 578.115 216.589 578.115 216.589H541.934C536.189 216.589 531.532 211.932 531.532 206.187Z" fill="#D9D9D9"/>
<path fill-rule="evenodd" clip-rule="evenodd" d="M100.504 238.719C100.504 234.118 104.234 230.388 108.835 230.388H166.913C169.123 230.388 171.242 231.266 172.804 232.829C174.366 234.391 175.244 236.51 175.244 238.719V272.042C175.244 276.643 171.514 280.373 166.913 280.373H108.835C104.234 280.373 100.504 276.643 100.504 272.042V238.719Z" fill="#EEEEEE"/>
<path fill-rule="evenodd" clip-rule="evenodd" d="M100.504 349.076C100.504 344.475 104.234 340.745 108.835 340.745H166.913C169.123 340.745 171.242 341.623 172.804 343.185C174.366 344.748 175.244 346.867 175.244 349.076V382.399C175.244 387 171.514 390.73 166.913 390.73H108.835C104.234 390.73 100.504 387 100.504 382.399V349.076Z" fill="#EEEEEE"/>
<path fill-rule="evenodd" clip-rule="evenodd" d="M100.504 458.431C100.504 453.83 104.234 450.1 108.835 450.1H166.913C169.123 450.1 171.242 450.977 172.804 452.54C174.366 454.102 175.244 456.221 175.244 458.431V491.753C175.244 496.354 171.514 500.084 166.913 500.084H108.835C104.234 500.084 100.504 496.354 100.504 491.753V458.431Z" fill="#EEEEEE"/>
<path d="M0 47C0 21.0426 21.0426 0 47 0H788C813.957 0 835 21.0426 835 47V47H0V47Z" fill="#D9D9D9"/>
<path d="M0 490H835V490C835 517.614 812.614 540 785 540H50C22.3858 540 0 517.614 0 490V490Z" fill="#D9D9D9"/>
</g>
</g>
<defs>
<clipPath id="clip0_8_2">
<rect width="835.199" height="540" fill="white"/>
</clipPath>
</defs>
</svg>
